svg/monochrome/arrow-circle-up.svg

<svg xmlns="http://www.w3.org/2000/svg" viewBox="0 0 24 24"><path class="uim-primary" d="M16.707,11.293l-3.99969-3.9997a1.00354,1.00354,0,0,0-1.41468,0L7.293,11.293A.99989.99989,0,0,0,8.707,12.707L11,10.41406V16a1,1,0,0,0,2,0V10.41406l2.293,2.293A.99989.99989,0,0,0,16.707,11.293Z"/><path class="uim-tertiary" d="M12,2A10,10,0,1,0,22,12,10.01114,10.01114,0,0,0,12,2Zm4.707,10.707a.99963.99963,0,0,1-1.41406,0L13,10.41406V16a1,1,0,0,1-2,0V10.41406L8.707,12.707A.99989.99989,0,0,1,7.293,11.293l3.99969-3.9997a1.00354,1.00354,0,0,1,1.41468,0L16.707,11.293A.99962.99962,0,0,1,16.707,12.707Z"/></svg>

<svg xmlns="http://www.w3.org/2000/svg" viewBox="0 0 24 24"><path class="uim-primary" d="m16.707 11.293-4-4a1.004 1.004 0 0 0-1.414 0l-4 4a1 1 0 0 0 1.414 1.414L11 10.414V16a1 1 0 0 0 2 0v-5.586l2.293 2.293a1 1 0 0 0 1.414-1.414Z"/><path class="uim-tertiary" d="M12 2a10 10 0 1 0 10 10A10.011 10.011 0 0 0 12 2Zm4.707 10.707a1 1 0 0 1-1.414 0L13 10.414V16a1 1 0 0 1-2 0v-5.586l-2.293 2.293a1 1 0 0 1-1.414-1.414l4-4a1.004 1.004 0 0 1 1.414 0l4 4a1 1 0 0 1 0 1.414Z"/></svg>
